X:269
T: Alter Hochzeitstanz
N: A0310C
O: Europa, Mitteleuropa, Deutschland
N: Souterliedekens 1540 ad Ps. 150
R: Romanze, Ballade, Lied
M: 3/2
L: 1/8
K: G
G4 | A4A2A2A2A2 | B4B4
A4 | GFGAB2B2A2G2 | F4z4
G4 | A6A2A2A2 | B4B4
A4 | G2A2G4F4 | G4z2
B2B2A2 | B4z2B2B2A2 | B4z2
B2A2A2 | GFGBA2G2G2F2 | G8

@@@ Tune index: 269
